svgs/opendocument_reader.svg

<svg xmlns="http://www.w3.org/2000/svg" viewBox="0 0 192 192"><path d="M159.5 61.346h-36.871a8.233 8.233 0 0 1-4.097-1.092 8.177 8.177 0 0 1-2.999-2.985 8.125 8.125 0 0 1-1.098-4.077V16.5H40.694a8.228 8.228 0 0 0-4.097 1.092 8.17 8.17 0 0 0-2.999 2.985 8.125 8.125 0 0 0-1.098 4.077v142.692c0 1.431.379 2.838 1.098 4.077a8.17 8.17 0 0 0 2.999 2.985 8.228 8.228 0 0 0 4.097 1.092h110.612c2.173 0 4.258-.86 5.794-2.388a8.138 8.138 0 0 0 2.4-5.766ZM114.435 16.5 159.5 61.346" fill="none" stroke="#000" stroke-width="8" stroke-linecap="round" stroke-linejoin="round"/><path d="M85.332 120.059V87.846h5.26a16.285 16.285 0 0 1 11.431 4.731 16.124 16.124 0 0 1 4.754 11.375 16.12 16.12 0 0 1-4.754 11.376 16.285 16.285 0 0 1-11.431 4.731ZM55.558 109.59a10.638 10.638 0 0 0 1.973 6.38 10.72 10.72 0 0 0 5.395 3.965c2.179.714 4.53.714 6.708 0a10.723 10.723 0 0 0 5.396-3.965 10.638 10.638 0 0 0 1.973-6.38V98.718a10.783 10.783 0 0 0-1.45-5.445 10.858 10.858 0 0 0-4.003-3.984 10.92 10.92 0 0 0-5.472-1.443 10.588 10.588 0 0 0-5.374 1.475 10.521 10.521 0 0 0-3.868 3.997 10.449 10.449 0 0 0-1.278 5.4Zm59.439 10.469V87.846h10.52a10.961 10.961 0 0 1 6.456 2.053 10.875 10.875 0 0 1 3.998 5.446 10.83 10.83 0 0 1 0 6.745 10.881 10.881 0 0 1-3.998 5.447 10.961 10.961 0 0 1-6.456 2.053h-10.52m11.289-.026 10.156 10.495" fill="none" stroke="#000" stroke-width="8" stroke-linecap="round" stroke-linejoin="round"/></svg>

<svg
    xmlns="http://www.w3.org/2000/svg"
    viewBox="0 0 192 192"
    id="vector">
    <path
        id="path"
        d="M 159.5 61.346 L 122.629 61.346 C 121.191 61.346 119.778 60.969 118.532 60.254 C 117.287 59.538 116.252 58.509 115.533 57.269 C 114.814 56.03 114.435 54.623 114.435 53.192 L 114.435 16.5 L 40.694 16.5 C 39.255 16.5 37.842 16.877 36.597 17.592 C 35.351 18.308 34.317 19.337 33.598 20.577 C 32.879 21.816 32.5 23.223 32.5 24.654 L 32.5 167.346 C 32.5 168.777 32.879 170.184 33.598 171.423 C 34.317 172.663 35.351 173.692 36.597 174.408 C 37.842 175.123 39.255 175.5 40.694 175.5 L 151.306 175.5 C 153.479 175.5 155.564 174.64 157.1 173.112 C 158.636 171.583 159.5 169.508 159.5 167.346 Z M 114.435 16.5 L 159.5 61.346"
        fill="none"
        stroke="#000000"
        stroke-width="8"
        stroke-linecap="round"
        stroke-linejoin="round"/>
    <path
        id="path_1"
        d="M 85.332 120.059 L 85.332 87.846 L 90.592 87.846 C 94.879 87.859 98.991 89.561 102.023 92.577 C 105.054 95.594 106.764 99.686 106.777 103.952 C 106.765 108.219 105.054 112.311 102.023 115.328 C 98.991 118.344 94.879 120.046 90.592 120.059 Z M 55.558 109.59 C 55.513 111.871 56.205 114.108 57.531 115.97 C 58.857 117.831 60.748 119.222 62.926 119.935 C 65.105 120.649 67.456 120.649 69.634 119.935 C 71.812 119.222 73.704 117.831 75.03 115.97 C 76.356 114.108 77.048 111.871 77.003 109.59 L 77.003 98.718 C 77.011 96.808 76.511 94.929 75.553 93.273 C 74.595 91.617 73.214 90.242 71.55 89.289 C 69.886 88.336 67.998 87.838 66.078 87.846 C 64.186 87.849 62.33 88.359 60.704 89.321 C 59.078 90.284 57.742 91.664 56.836 93.318 C 55.931 94.971 55.489 96.837 55.558 98.718 Z M 114.997 120.059 L 114.997 87.846 L 125.517 87.846 C 127.833 87.832 130.095 88.551 131.973 89.899 C 133.852 91.246 135.252 93.154 135.971 95.345 C 136.689 97.537 136.689 99.899 135.971 102.09 C 135.252 104.281 133.852 106.189 131.973 107.537 C 130.095 108.885 127.833 109.604 125.517 109.59 L 114.997 109.59 M 126.286 109.564 L 136.442 120.059"
        fill="none"
        stroke="#000000"
        stroke-width="8"
        stroke-linecap="round"
        stroke-linejoin="round"/>
</svg>
